X: 31175
T: Paddy Fahey's
R: reel
M: 4/4
K: Gmajor
|:G2 dG Bcdc|A=FFF cFAF|G2 dG Bcdg|fgag fdcA|
G2 GG Bcdc|A=FFF cFAF|G2 DG Bcdg|1 fdcA G3 F:|2 fdcA G3 g||
|:fggf ggge|fgag fddd|fgaf gbag|fdcA dggf|
gbfa gfde|fgeg fdcA|dggg dgaf|g2 ag fdcA:|

